X:125
T:The Fiddlin' CD Breakdown
R:reel
C:Bruce Osborne - June 2002
Z:bosborne@kos.net
M:2/4
L:1/16
K:F
AB|cAFA CFAc|dcAc F2EF|GFGA BABc|edcB A2AB|
cAFA CFAc|dcAc F2EF|GFGA BGEG|FEAG F2:|
|:A,B,|CB,CF Acfg|agaf c2ef|gece GECE|FEFG A2A,B,|
CB,CF Acfg|agaf c2ef|gece GECE|FEAG F2:|
